src/topics/icons/galliumos.svg

<svg height="256" preserveAspectRatio="xMidYMid" viewBox="0 0 256 256" width="256" xmlns="http://www.w3.org/2000/svg"><path d="m169.533 127.998c0 .669-.018 1.329-.051 1.99-.003.057-.011.116-.013.174l.061.291 86.47 125.431v.114-14.123-2.189l-90.75-133c-.341-.602-1.852-.739-2.227-1.318l-.111-.179-.004.003c-1.4-2.124-3.032-4.076-4.855-5.836 7.105 7.452 11.48 17.532 11.48 28.642z" fill="#68a5c6"/><path d="m128.001 169.533c-.67 0-1.33-.018-1.992-.05-.055-.004-.114-.01-.171-.014l-4.837 1.883-117.168 79.835-3.833 4.814h14.127l4.707-1.981 126.5-85.5 3.526-4.419c.602-.343 1.194-.701 1.772-1.079l.18-.109-.002-.006c2.123-1.398 4.077-3.03 5.835-4.853-7.452 7.108-17.533 11.479-28.644 11.479z" fill="#98b7d4"/><path d="m0 14.127 1.666 5.058 86.335 127.667 3.899 2.008c.343.602.701 1.194 1.079 1.776l.109.179.006-.003c1.398 2.123 3.03 4.075 4.853 5.836-7.108-7.451-11.479-17.533-11.479-28.644 0-.669.018-1.331.05-1.991.004-.056.01-.116.014-.171l-1.365-4.822-81-118.667-4.167-2.353z" fill="#347294"/><path d="m241.874.001-5.04 1.852-126.834 85.5-2.86 4.55c-.601.341-1.193.699-1.772 1.076l-.179.11.002.004c-2.123 1.4-4.077 3.031-5.835 4.855 7.451-7.108 17.533-11.48 28.644-11.48.669 0 1.33.018 1.991.051.056.003.115.01.171.013l3.838-1.013 118.167-80.833 3.833-4.685z" fill="#5089af"/><path d="m0 256.001 125.836-86.526c-10.097-.521-19.236-4.644-26.165-11.112-.594-.553-1.165-1.131-1.726-1.719-1.824-1.757-3.455-3.711-4.854-5.834l-.005.002-.11-.18c-.376-.578-.735-1.17-1.078-1.772l-91.898-134.733z" fill="#367ba0"/><path d="m0 0 86.529 125.836c.52-10.097 4.644-19.235 11.109-26.164.553-.594 1.132-1.166 1.718-1.727 1.759-1.824 3.712-3.455 5.835-4.853l-.002-.006.179-.11c.58-.377 1.171-.735 1.772-1.078l134.734-91.898z" fill="#5495bf"/><path d="m130.165 86.529c10.097.52 19.235 4.644 26.164 11.111.594.555 1.166 1.132 1.727 1.719 1.824 1.757 3.455 3.711 4.853 5.835l.006-.003.11.18c.377.578.735 1.17 1.078 1.772l91.898 134.734v-241.877z" fill="#71b6db"/><path d="m158.363 156.33c-.554.594-1.13 1.165-1.718 1.726-1.757 1.824-3.712 3.455-5.836 4.854l.003.005-.18.11c-.577.377-1.17.735-1.772 1.078l-134.734 91.898h241.874l-86.526-125.836c-.519 10.097-4.644 19.236-11.111 26.165z" fill="#a5c8e8"/></svg>

<?xml version="1.0" encoding="UTF-8"?>
<svg width="256px" height="256px" viewBox="0 0 256 256" version="1.1" xmlns="http://www.w3.org/2000/svg" xmlns:xlink="http://www.w3.org/1999/xlink" preserveAspectRatio="xMidYMid">
	<g>
		<path d="M169.533,127.998 C169.533,128.667 169.515,129.327 169.482,129.988 C169.479,130.045 169.471,130.104 169.469,130.162 L169.53,130.453 L256,255.884 L256,255.998 L256,241.875 L256,239.686 L165.25,106.686 C164.909,106.084 163.398,105.947 163.023,105.368 L162.912,105.189 L162.908,105.192 C161.508,103.068 159.876,101.116 158.053,99.356 C165.158,106.808 169.533,116.888 169.533,127.998 L169.533,127.998 Z" fill="#68A5C6"></path>
		<path d="M128.001,169.533 C127.331,169.533 126.671,169.515 126.009,169.483 C125.954,169.479 125.895,169.473 125.838,169.469 L121.001,171.352 L3.833,251.187 L0,256.001 L14.127,256.001 L18.834,254.02 L145.334,168.52 L148.86,164.101 C149.462,163.758 150.054,163.4 150.632,163.022 L150.812,162.913 L150.81,162.907 C152.933,161.509 154.887,159.877 156.645,158.054 C149.193,165.162 139.112,169.533 128.001,169.533 L128.001,169.533 Z" fill="#98B7D4"></path>
		<path d="M0,14.127 L1.666,19.185 L88.001,146.852 L91.9,148.86 C92.243,149.462 92.601,150.054 92.979,150.636 L93.088,150.815 L93.094,150.812 C94.492,152.935 96.124,154.887 97.947,156.648 C90.839,149.197 86.468,139.115 86.468,128.004 C86.468,127.335 86.486,126.673 86.518,126.013 C86.522,125.957 86.528,125.897 86.532,125.842 L85.167,121.02 L4.167,2.353 L0,-5.68434189e-14 L0,14.127 L0,14.127 Z" fill="#347294"></path>
		<path d="M241.874,0.001 L236.834,1.853 L110,87.353 L107.14,91.903 C106.539,92.244 105.947,92.602 105.368,92.979 L105.189,93.089 L105.191,93.093 C103.068,94.493 101.114,96.124 99.356,97.948 C106.807,90.84 116.889,86.468 128,86.468 C128.669,86.468 129.33,86.486 129.991,86.519 C130.047,86.522 130.106,86.529 130.162,86.532 L134,85.519 L252.167,4.686 L256,0.001 L241.874,0.001 L241.874,0.001 Z" fill="#5089AF"></path>
		<path d="M0,256.001 L125.836,169.475 C115.739,168.954 106.6,164.831 99.671,158.363 C99.077,157.81 98.506,157.232 97.945,156.644 C96.121,154.887 94.49,152.933 93.091,150.81 L93.086,150.812 L92.976,150.632 C92.6,150.054 92.241,149.462 91.898,148.86 L0,14.127 L0,256.001 L0,256.001 Z" fill="#367BA0"></path>
		<path d="M0,-5.68434189e-14 L86.529,125.836 C87.049,115.739 91.173,106.601 97.638,99.672 C98.191,99.078 98.77,98.506 99.356,97.945 C101.115,96.121 103.068,94.49 105.191,93.092 L105.189,93.086 L105.368,92.976 C105.948,92.599 106.539,92.241 107.14,91.898 L241.874,-5.68434189e-14 L0,-5.68434189e-14 L0,-5.68434189e-14 Z" fill="#5495BF"></path>
		<path d="M130.165,86.529 C140.262,87.049 149.4,91.173 156.329,97.64 C156.923,98.195 157.495,98.772 158.056,99.359 C159.88,101.116 161.511,103.07 162.909,105.194 L162.915,105.191 L163.025,105.371 C163.402,105.949 163.76,106.541 164.103,107.143 L256.001,241.877 L256.001,-5.68434189e-14 L130.165,86.529 L130.165,86.529 Z" fill="#71B6DB"></path>
		<path d="M158.363,156.33 C157.809,156.924 157.233,157.495 156.645,158.056 C154.888,159.88 152.933,161.511 150.809,162.91 L150.812,162.915 L150.632,163.025 C150.055,163.402 149.462,163.76 148.86,164.103 L14.126,256.001 L256,256.001 L169.474,130.165 C168.955,140.262 164.83,149.401 158.363,156.33 L158.363,156.33 Z" fill="#A5C8E8"></path>
	</g>
</svg>
